assets/img/Brands/in.svg

<svg width="30" height="31" viewBox="0 0 30 31" fill="none" xmlns="http://www.w3.org/2000/svg">
<path d="M6.71502 30.4707H0.495425V10.4417H6.71502V30.4707ZM3.60187 7.70954C1.61348 7.70954 0 6.06222 0 4.07338C0 2.08454 1.61348 0.470703 3.60187 0.470703C5.59027 0.470703 7.20375 2.08454 7.20375 4.07338C7.20375 6.06222 5.59027 7.70954 3.60187 7.70954ZM29.9933 30.4707H23.7871V20.7207C23.7871 18.397 23.7402 15.4171 20.5534 15.4171C17.3198 15.4171 16.8244 17.9417 16.8244 20.5533V30.4707H10.6115V10.4417H16.5767V13.1738H16.6637C17.4939 11.6002 19.5224 9.93945 22.5485 9.93945C28.8418 9.93945 30 14.0845 30 19.4685V30.4707H29.9933Z" fill="#857885"/>
</svg>

<svg width="30" height="31" fill="none" xmlns="http://www.w3.org/2000/svg"><path d="M6.715 30.47H.495V10.443h6.22V30.47zM3.602 7.71C1.613 7.71 0 6.062 0 4.073A3.603 3.603 0 013.602.471a3.603 3.603 0 013.602 3.602c0 1.99-1.614 3.637-3.602 3.637zm26.391 22.76h-6.206v-9.75c0-2.323-.047-5.303-3.234-5.303-3.233 0-3.729 2.525-3.729 5.136v9.918h-6.213V10.44h5.966v2.733h.087c.83-1.574 2.858-3.235 5.884-3.235 6.294 0 7.452 4.146 7.452 9.53V30.47h-.007z" fill="#857885"/></svg>
